X: 17499
T: Hills Of Glenorchy, The
R: jig
M: 6/8
K: Adorian
efe ABA|ede g2e|ded G2G|BGB d2g|
efe ABA|ede g2b|age dBG|A3 A3:|
a3 a3|agb age|g3 g3|gef gfe|
a3 a3|agb age|gfg dBG|1 . ABA efg:|2 . ABA g2f||
efe ~A3|ede gfe|ded ~G3|BGB dgf|
efe ~A3|ede gab|age dBG|1 . ~A3 ABd:|2 . ~A3 A2g||
~a3 age|agb age|~g3 ged|gfg bag|
~a3 age|agb age|~g3 dBG|1 . ~A3 A2g:|2 . ~A3 ABd||

